X:1
T: Ashley Hornpipe
N:
C:
S:
A:
O:
R:
M:4/4
K:D
I:speed 232
%W:
% voice 1 (1 lines, 61 notes)
K:D
M:4/4
L:1/16
B4 |d2 c2 d2 A2 F2 A2 d2 f2 |e2 d2 c2 B2 A2 c2 e2 f2 |g2 f2 e2 d2 c2 A2 g2 f2 |e2 f2 d2 e2 A2 g2 f2 e2 |d2 c2 d2 A2 F2 A2 d2 f2 |f2 e2 d2 B2 A2 c2 e2 g2 |f2 a2 f2 d2 e2 g2 e2 c2 |d4 d4 d4 B4 |
%W:
% voice 1 (1 lines, 61 notes)
d2 c2 d2 A2 F2 A2 d2 f2 |e2 d2 c2 B2 A2 c2 e2 f2 |g2 f2 e2 d2 c2 A2 g2 f2 |e2 f2 d2 e2 A2 g2 f2 e2 |d2 c2 d2 A2 F2 A2 d2 f2 |f2 e2 d2 B2 A2 c2 e2 g2 |f2 a2 f2 d2 e2 g2 e2 c2 |d4 d4 d4 f2 g2 |
%W:
% voice 1 (1 lines, 61 notes)
a2 f2 f2 f2 d2 f2 f2 f2 |b2 g2 g2 g2 e2 g2 g2 g2 |a2 f2 e2 d2 f2 d2 a2 f2 |e2 f2 d2 e2 A2 g2 f2 e2 |d2 c2 d2 A2 F2 A2 d2 f2 |e2 d2 c2 B2 A2 c2 e2 g2 |f2 a2 f2 d2 e2 g2 e2 c2 |d4 d4 d4 f2 g2 |
%W:
% voice 1 (1 lines, 59 notes)
a2 f2 f2 f2 d2 f2 f2 f2 |b2 g2 g2 g2 e2 g2 g2 g2 |a2 f2 e2 d2 f2 d2 a2 f2 |e2 f2 d2 e2 A2 g2 f2 e2 |d2 c2 d2 A2 F2 A2 d2 f2 |e2 d2 c2 B2 A2 c2 e2 g2 |f2 a2 f2 d2 e2 g2 e2 c2 |d4 d4 d4 ||
